X: 15029
T: George Ross's
R: reel
M: 4/4
K: Gmajor
A|:BGGF GABc|dGAF GFDE|=F2EG =FGAB|c=F =F2 C=FAc|
BGGF GABc|dGG2 dGBG|Add2 Adeg|1 fdcA GFGA:|2 fdcA G2Ac||
|:dggf g2 ga|bgaf gfde|=f2cf fedc|c2Bc ABcA|
dgg2 agg2|bgg2 agg2|Add2 Adeg|1 fdcA G2Ac:|2 fdcA G3||

